X: 47
T:Saddle the Pony
T:Priests Leap, The
M:6/8
L:1/8
R:Jig
K:G
|:D|GBA G2 B|def gdB|GBA G2B|AFD AFD|GBA G2 B|def gfg|ege dBA|BGG G2:|
| |:
d|efe edB|def gfg|efe edB|BAA ABd|efe edB|def gfg|ege dBA|BGG G2:|
